X: 304
T: A Paddybird
R: slip jig
M: 9/8
K: Dmajor
|:A2d B2G FGE|A2d B2G FEA|A2d B2G FGA|BcA BGA FGE:|
|:A2d e2d f2A|B2d e2d g2B|A2d e2d a2d|efd BGA FGE:|
afd a2f gab|efe d2B cBA|dfa b2g fge|d2B cde d2A|
afd a2f gab|efe d2B cBA|dfa b2d bag|f2d cBc d2A|
afd d'2a bag|efe ded cea|afd d'2a gfe|d2B cde d2A|
afd d'2a bag|efe ded cea|dfa b2d bag|f2d cBc d2A||

